images/svg/023-baby.svg

<svg id="eib3x3m2k9l91" xmlns="http://www.w3.org/2000/svg" xmlns:xlink="http://www.w3.org/1999/xlink" viewBox="0 0 512.011000 512.011000" shape-rendering="geometricPrecision" text-rendering="geometricPrecision"><style><![CDATA[#eib3x3m2k9l94_to {animation: eib3x3m2k9l94_to__to 3000ms linear 1 normal forwards}@keyframes eib3x3m2k9l94_to__to { 0% {transform: translate(275.463600px,699.520348px)} 100% {transform: translate(275.463600px,155.101631px)} }#eib3x3m2k9l95_to {animation: eib3x3m2k9l95_to__to 3000ms linear 1 normal forwards}@keyframes eib3x3m2k9l95_to__to { 0% {transform: translate(352.338989px,982.418717px)} 100% {transform: translate(352.338989px,438px)} }#eib3x3m2k9l96_to {animation: eib3x3m2k9l96_to__to 3000ms linear 1 normal forwards}@keyframes eib3x3m2k9l96_to__to { 0% {transform: translate(275.213989px,926.336716px)} 100% {transform: translate(275.213989px,381.917999px)} }#eib3x3m2k9l97_to {animation: eib3x3m2k9l97_to__to 3000ms linear 1 normal forwards}@keyframes eib3x3m2k9l97_to__to { 0% {transform: translate(146.880104px,926.338700px)} 100% {transform: translate(146.880104px,381.919983px)} }#eib3x3m2k9l98_to {animation: eib3x3m2k9l98_to__to 3000ms linear 1 normal forwards}@keyframes eib3x3m2k9l98_to__to { 0% {transform: translate(98.796997px,878.254716px)} 100% {transform: translate(98.796997px,333.835999px)} }#eib3x3m2k9l99_to {animation: eib3x3m2k9l99_to__to 3000ms linear 1 normal forwards}@keyframes eib3x3m2k9l99_to__to { 0% {transform: translate(275.213997px,822.012223px)} 100% {transform: translate(275.213997px,277.593506px)} }#eib3x3m2k9l910_to {animation: eib3x3m2k9l910_to__to 3000ms linear 1 normal forwards}@keyframes eib3x3m2k9l910_to__to { 0% {transform: translate(275.214020px,717.046712px)} 100% {transform: translate(275.214020px,172.627995px)} }#eib3x3m2k9l911_to {animation: eib3x3m2k9l911_to__to 3000ms linear 1 normal forwards}@keyframes eib3x3m2k9l911_to__to { 0% {transform: translate(81.305004px,1010.337723px)} 100% {transform: translate(81.305004px,465.919006px)} }#eib3x3m2k9l913_to {animation: eib3x3m2k9l913_to__to 3000ms linear 1 normal forwards}@keyframes eib3x3m2k9l913_to__to { 0% {transform: translate(275.463989px,1010.341721px)} 100% {transform: translate(275.463989px,465.923004px)} }#eib3x3m2k9l914_to {animation: eib3x3m2k9l914_to__to 3000ms linear 1 normal forwards}@keyframes eib3x3m2k9l914_to__to { 0% {transform: translate(164.347992px,1010.341721px)} 100% {transform: translate(164.347992px,465.923004px)} }#eib3x3m2k9l916_to {animation: eib3x3m2k9l916_to__to 3000ms linear 1 normal forwards}@keyframes eib3x3m2k9l916_to__to { 0% {transform: translate(111.484497px,890.943207px)} 100% {transform: translate(111.484497px,346.524490px)} }#eib3x3m2k9l917_to {animation: eib3x3m2k9l917_to__to 3000ms linear 1 normal forwards}@keyframes eib3x3m2k9l917_to__to { 0% {transform: translate(275.462540px,733.859650px)} 100% {transform: translate(275.462540px,189.440933px)} }#eib3x3m2k9l918_to {animation: eib3x3m2k9l918_to__to 3000ms linear 1 normal forwards}@keyframes eib3x3m2k9l918_to__to { 0% {transform: translate(256.005453px,800.424233px)} 100% {transform: translate(256.005453px,256.005516px)} }#eib3x3m2k9l919_to {animation: eib3x3m2k9l919_to__to 3000ms linear 1 normal forwards}@keyframes eib3x3m2k9l919_to__to { 0% {transform: translate(465.915009px,870.269730px)} 100% {transform: translate(465.915009px,325.851013px)} }]]></style><g id="eib3x3m2k9l92"><g id="eib3x3m2k9l93"><g id="eib3x3m2k9l94_to" transform="translate(275.463600,699.520348)"><path id="eib3x3m2k9l94" d="M412.071000,172.574000C422.920000,147.210000,418.013000,116.715000,397.313000,96.015000C393.140000,91.842000,388.566000,88.316000,383.719000,85.426000C367.473000,41.396000,325.136000,10,275.464000,10C225.792000,10,183.455000,41.396000,167.208000,85.426000C162.361000,88.317000,157.787000,91.842000,153.614000,96.015000C132.914000,116.715000,128.007000,147.210000,138.856000,172.574000C111.859000,202.621000,112.807000,248.886000,141.709000,277.788000C171.596000,307.675000,220.052000,307.675000,249.939000,277.788000C260.699000,267.028000,267.566000,253.859000,270.574000,240.020000L280.353000,240.020000C283.361000,253.859000,290.227000,267.028000,300.988000,277.788000C330.875000,307.675000,379.331000,307.675000,409.219000,277.788000C438.120000,248.886000,439.068000,202.621000,412.071000,172.574000Z" transform="translate(-275.463600,-155.101631)" fill="rgb(255,216,142)" stroke="none" stroke-width="1"/></g><g id="eib3x3m2k9l95_to" transform="translate(352.338989,982.418717)"><path id="eib3x3m2k9l95" d="M397.214000,374L397.214000,429.846000L307.464000,429.846000L307.464000,502L374.472000,502" transform="translate(-352.338989,-438)" fill="rgb(255,255,255)" stroke="none" stroke-width="1"/></g><g id="eib3x3m2k9l96_to" transform="translate(275.213989,926.336716)"><path id="eib3x3m2k9l96" d="M424.214000,502C457.903000,502,485.214000,474.689000,485.214000,441L485.214000,394.918000C485.214000,321.419000,425.631000,261.836000,352.132000,261.836000L198.296000,261.836000C124.797000,261.836000,65.214000,321.419000,65.214000,394.918000L307.464000,502Z" transform="translate(-275.213989,-381.917999)" fill="rgb(255,122,122)" stroke="none" stroke-width="1"/></g><g id="eib3x3m2k9l97_to" transform="translate(146.880104,926.338700)"><path id="eib3x3m2k9l97" d="M92.981000,429.844000L47.885000,384.748000C19.767000,356.630000,19.767000,311.042000,47.885000,282.925000C76.003000,254.807000,121.591000,254.807000,149.708000,282.925000L245.875000,379.092000C260.471000,393.688000,267.490000,412.991000,266.933000,432.114000L246.455000,480.329000C246.263000,480.525000,246.070000,480.721000,245.875000,480.915000C226.566000,500.224000,199.019000,506.273000,174.549000,499.063000Z" transform="translate(-146.880104,-381.919983)" fill="rgb(203,244,251)" stroke="none" stroke-width="1"/></g><g id="eib3x3m2k9l98_to" transform="translate(98.796997,878.254716)"><circle id="eib3x3m2k9l98" r="72" transform="translate(0,0)" fill="rgb(255,208,198)" stroke="none" stroke-width="1"/></g><g id="eib3x3m2k9l99_to" transform="translate(275.213997,822.012223)"><path id="eib3x3m2k9l99" d="M305.873000,262.183000L305.873000,230.502000L244.555000,230.502000L244.555000,262.183000L212.712000,262.183000C212.712000,296.702000,240.695000,324.685000,275.214000,324.685000C309.733000,324.685000,337.716000,296.702000,337.716000,262.183000Z" transform="translate(-275.213997,-277.593506)" fill="rgb(244,198,175)" stroke="none" stroke-width="1"/></g><g id="eib3x3m2k9l910_to" transform="translate(275.214020,717.046712)"><path id="eib3x3m2k9l910" d="M343.424000,125.239000L343.424000,166.332000C343.424000,204.003000,312.885000,234.542000,275.214000,234.542000C237.543000,234.542000,207.004000,204.003000,207.004000,166.332000L207.004000,125.239000L257.076000,125.239000C268.492000,125.239000,279.239000,119.856000,286.076000,110.714000C298.129000,120.126000,312.982000,125.239000,328.274000,125.239000Z" transform="translate(-275.214020,-172.627995)" fill="rgb(244,198,175)" stroke="none" stroke-width="1"/></g><g id="eib3x3m2k9l911_to" transform="translate(81.305004,1010.337723)"><path id="eib3x3m2k9l911" d="M132.348000,429.846000L66.335000,429.846000C46.413000,429.846000,30.262000,445.996000,30.262000,465.919000C30.262000,485.841000,46.412000,501.992000,66.335000,501.992000L132.348000,501.992000Z" transform="translate(-81.305004,-465.919006)" fill="rgb(255,122,122)" stroke="none" stroke-width="1"/></g><g id="eib3x3m2k9l912"><g id="eib3x3m2k9l913_to" transform="translate(275.463989,1010.341721)"><path id="eib3x3m2k9l913" d="M279.541000,429.846000L307.464000,429.846000L307.464000,502L279.541000,502C259.616000,502,243.464000,485.848000,243.464000,465.923000C243.464000,445.998000,259.616000,429.846000,279.541000,429.846000Z" transform="translate(-275.463989,-465.923004)" fill="rgb(244,198,175)" stroke="none" stroke-width="1"/></g><g id="eib3x3m2k9l914_to" transform="translate(164.347992,1010.341721)"><path id="eib3x3m2k9l914" d="M160.271000,502L132.348000,502L132.348000,429.846000L160.271000,429.846000C180.196000,429.846000,196.348000,445.998000,196.348000,465.923000C196.348000,485.848000,180.195000,502,160.271000,502Z" transform="translate(-164.347992,-465.923004)" fill="rgb(244,198,175)" stroke="none" stroke-width="1"/></g></g></g><g id="eib3x3m2k9l915"><g id="eib3x3m2k9l916_to" transform="translate(111.484497,890.943207)"><path id="eib3x3m2k9l916" d="M106.962000,361.047000C117.463000,361.047000,126.007000,352.503000,126.007000,342.002000C126.007000,336.479000,121.530000,332.002000,116.007000,332.002000C110.792000,332.002000,106.509000,335.994000,106.048000,341.088000C100.953000,341.549000,96.962000,345.832000,96.962000,351.047000C96.962000,356.570000,101.439000,361.047000,106.962000,361.047000Z" transform="translate(-111.484497,-346.524490)" fill="rgb(0,0,0)" stroke="none" stroke-width="1"/></g><g id="eib3x3m2k9l917_to" transform="translate(275.462540,733.859650)"><path id="eib3x3m2k9l917" d="M275.463000,201.857000C282.259000,201.857000,289.054000,199.271000,294.228000,194.097000C298.133000,190.192000,298.133000,183.860000,294.228000,179.954000C290.323000,176.048000,283.991000,176.049000,280.085000,179.954000C277.536000,182.504000,273.389000,182.503000,270.840000,179.954000C266.935000,176.049000,260.603000,176.049000,256.697000,179.954000C252.792000,183.859000,252.792000,190.191000,256.697000,194.097000C261.873000,199.271000,268.668000,201.857000,275.463000,201.857000Z" transform="translate(-275.462540,-189.440933)" fill="rgb(0,0,0)" stroke="none" stroke-width="1"/></g><g id="eib3x3m2k9l918_to" transform="translate(256.005453,800.424233)"><path id="eib3x3m2k9l918" d="M492.224000,365.689000C491.101000,360.281000,485.804000,356.806000,480.400000,357.931000C474.992000,359.054000,471.519000,364.347000,472.642000,369.755000C474.349000,377.977000,475.214000,386.443000,475.214000,394.919000L475.214000,441C475.214000,469.122000,452.336000,492,424.214000,492L317.464000,492L317.464000,439.846000L397.214000,439.846000C402.737000,439.846000,407.214000,435.369000,407.214000,429.846000L407.214000,374C407.214000,368.477000,402.737000,364,397.214000,364C391.691000,364,387.214000,368.477000,387.214000,374L387.214000,419.846000L279.541000,419.846000C278.462000,419.846000,277.394000,419.897000,276.333000,419.970000C274.088000,401.965000,265.891000,384.966000,252.946000,372.020000L159.123000,278.198000C171.669000,273.978000,184.788000,271.836000,198.295000,271.836000L203.418000,271.836000C208.308000,307.083000,238.631000,334.314000,275.213000,334.314000C311.795000,334.314000,342.119000,307.083000,347.008000,271.836000L352.131000,271.836000C380.485000,271.836000,408.158000,281.709000,430.052000,299.637000C431.911000,301.159000,434.153000,301.901000,436.382000,301.901000C439.277000,301.901000,442.148000,300.650000,444.125000,298.236000C447.624000,293.963000,446.997000,287.662000,442.724000,284.164000C437.557000,279.933000,432.109000,276.095000,426.438000,272.653000C436.171000,258.504000,441.501000,241.732000,441.628000,224.311000C441.770000,204.776000,435.372000,185.956000,423.501000,170.669000C433.211000,142.068000,426.019000,110.581000,404.384000,88.945000C400.561000,85.121000,396.358000,81.695000,391.855000,78.728000C372.913000,31.494000,326.578000,0,275.464000,0C224.349000,0,178.014000,31.494000,159.072000,78.728000C154.570000,81.695000,150.366000,85.122000,146.543000,88.945000C124.908000,110.580000,117.717000,142.070000,127.427000,170.671000C108.987000,194.456000,104.647000,225.940000,114.576000,253.352000C109.431000,252.354000,104.154000,251.837000,98.797000,251.837000C76.894000,251.837000,56.302000,260.367000,40.814000,275.855000C25.327000,291.343000,16.797000,311.935000,16.797000,333.838000C16.797000,355.741000,25.327000,376.333000,40.814000,391.821000C40.821000,391.828000,40.828000,391.834000,40.834000,391.841000L68.841000,419.848000L66.335000,419.848000C40.931000,419.848000,20.263000,440.516000,20.263000,465.921000C20.263000,491.326000,40.931000,511.994000,66.335000,511.994000L160.271000,512C165.441000,512,170.409000,511.131000,175.053000,509.554000C181.641000,511.200000,188.319000,512.011000,194.951000,512.011000C212.635000,512.011000,229.965000,506.275000,244.258000,495.515000C252.717000,505.585000,265.392000,512.001000,279.541000,512.001000L424.214000,512.001000C463.363000,512.001000,495.214000,480.150000,495.214000,441.001000L495.214000,394.919000C495.214000,385.080000,494.208000,375.246000,492.224000,365.689000ZM119.277000,413.262000C133.343000,409.661000,146.244000,402.355000,156.779000,391.819000C172.267000,376.331000,180.797000,355.739000,180.797000,333.836000C180.797000,331.851000,180.703000,329.882000,180.564000,327.922000L236.627000,383.985000C203.612000,412.745000,159.695000,422.503000,119.277000,413.262000ZM275.214000,314.314000C249.685000,314.314000,228.353000,296.005000,223.668000,271.836000L244.555000,271.836000C250.078000,271.836000,254.555000,267.359000,254.555000,261.836000L254.555000,241.751000C261.141000,243.557000,268.063000,244.541000,275.214000,244.541000C282.365000,244.541000,289.287000,243.557000,295.873000,241.751000L295.873000,261.836000C295.873000,267.359000,300.350000,271.836000,305.873000,271.836000L326.760000,271.836000C322.075000,296.006000,300.743000,314.314000,275.214000,314.314000ZM217.004000,135.239000L248.650000,135.239000C262.929000,135.239000,275.934000,129.709000,285.658000,120.688000C294.839000,129.870000,307.412000,135.239000,320.761000,135.239000L333.425000,135.239000L333.425000,166.332000C333.425000,198.429000,307.312000,224.541000,275.215000,224.541000C243.118000,224.541000,217.006000,198.428000,217.006000,166.332000L217.006000,135.239000ZM148.051000,168.642000C138.420000,146.125000,143.380000,120.393000,160.686000,103.087000C164.182000,99.590000,168.100000,96.538000,172.331000,94.015000C174.295000,92.844000,175.798000,91.034000,176.590000,88.889000C191.793000,47.684000,231.528000,20,275.464000,20C319.400000,20,359.133000,47.684000,374.338000,88.888000C375.130000,91.034000,376.633000,92.843000,378.598000,94.015000C382.828000,96.538000,386.746000,99.590000,390.243000,103.087000C407.550000,120.393000,412.509000,146.125000,402.878000,168.642000C401.347000,172.221000,402.032000,176.363000,404.634000,179.258000C426.144000,203.198000,427.361000,238.223000,408.470000,263.410000C390.779000,255.841000,371.594000,251.837000,352.133000,251.837000L315.874000,251.837000L315.874000,233.117000C338.374000,219.368000,353.425000,194.576000,353.425000,166.333000L353.425000,125.240000C353.425000,119.717000,348.948000,115.240000,343.425000,115.240000L320.760000,115.240000C311.751000,115.240000,303.343000,111.137000,297.774000,104.287000C301.198000,97.164000,303.118000,89.188000,303.118000,80.770000C303.118000,75.247000,298.641000,70.770000,293.118000,70.770000C287.595000,70.770000,283.118000,75.247000,283.118000,80.770000C283.118000,99.776000,267.655000,115.239000,248.649000,115.239000L207.003000,115.239000C201.480000,115.239000,197.003000,119.716000,197.003000,125.239000L197.003000,166.332000C197.003000,194.575000,212.054000,219.367000,234.554000,233.116000L234.554000,251.836000L198.295000,251.836000C178.817000,251.836000,160.021000,255.669000,142.327000,263.211000C123.755000,238.122000,125.184000,202.752000,146.294000,179.257000C148.896000,176.362000,149.582000,172.221000,148.051000,168.642000ZM54.957000,289.996000C66.667000,278.286000,82.237000,271.836000,98.797000,271.836000C115.356000,271.836000,130.924000,278.284000,142.634000,289.993000L142.637000,289.996000L142.647000,290.006000C154.351000,301.715000,160.797000,317.280000,160.797000,333.836000C160.797000,350.397000,154.347000,365.966000,142.637000,377.676000C130.927000,389.386000,115.357000,395.836000,98.797000,395.836000C82.236000,395.836000,66.667000,389.387000,54.957000,377.676000C43.247000,365.966000,36.797000,350.397000,36.797000,333.836000C36.797000,317.276000,43.246000,301.706000,54.957000,289.996000ZM40.263000,465.918000C40.263000,451.542000,51.959000,439.845000,66.335000,439.845000L122.348000,439.845000L122.348000,491.991000L66.335000,491.991000C51.958000,491.991000,40.263000,480.295000,40.263000,465.918000ZM142.348000,492L142.348000,439.846000L160.271000,439.846000C174.650000,439.846000,186.348000,451.544000,186.348000,465.923000C186.348000,480.302000,174.649000,492,160.271000,492ZM198.291000,491.915000C203.369000,484.511000,206.347000,475.559000,206.347000,465.923000C206.347000,452.037000,200.164000,439.575000,190.416000,431.120000C211.919000,425.150000,231.885000,414.501000,249.070000,399.685000C253.568000,407.669000,256.223000,416.554000,256.823000,425.860000C242.888000,433.793000,233.463000,448.774000,233.463000,465.923000C233.463000,469.886000,233.966000,473.734000,234.912000,477.406000C224.503000,486.184000,211.617000,491.196000,198.291000,491.915000ZM253.464000,465.923000C253.464000,451.544000,265.162000,439.846000,279.541000,439.846000L297.464000,439.846000L297.464000,492L279.541000,492C265.162000,492,253.464000,480.302000,253.464000,465.923000Z" transform="translate(-256.005453,-256.005516)" fill="rgb(0,0,0)" stroke="none" stroke-width="1"/></g><g id="eib3x3m2k9l919_to" transform="translate(465.915009,870.269730)"><path id="eib3x3m2k9l919" d="M465.915000,335.851000C468.545000,335.851000,471.125000,334.781000,472.985000,332.921000C474.845000,331.061000,475.915000,328.481000,475.915000,325.851000C475.915000,323.221000,474.845000,320.641000,472.985000,318.781000C471.115000,316.921000,468.545000,315.851000,465.915000,315.851000C463.275000,315.851000,460.705000,316.921000,458.835000,318.781000C456.975000,320.641000,455.915000,323.221000,455.915000,325.851000C455.915000,328.481000,456.975000,331.061000,458.835000,332.921000C460.705000,334.781000,463.275000,335.851000,465.915000,335.851000Z" transform="translate(-465.915009,-325.851013)" fill="rgb(0,0,0)" stroke="none" stroke-width="1"/></g></g></g></svg>

<svg id="Capa_1" enable-background="new 0 0 512.011 512.011" height="512" viewBox="0 0 512.011 512.011" width="512" xmlns="http://www.w3.org/2000/svg"><g id="XMLID_15_"><g id="XMLID_864_"><path id="XMLID_2761_" d="m412.071 172.574c10.849-25.364 5.942-55.859-14.758-76.559-4.173-4.173-8.747-7.699-13.594-10.589-16.246-44.03-58.583-75.426-108.255-75.426-49.672 0-92.009 31.396-108.256 75.426-4.847 2.891-9.421 6.416-13.594 10.589-20.7 20.7-25.607 51.195-14.758 76.559-26.997 30.047-26.049 76.312 2.853 105.214 29.887 29.887 78.343 29.887 108.23 0 10.76-10.76 17.627-23.929 20.635-37.768h9.779c3.008 13.839 9.874 27.008 20.635 37.768 29.887 29.887 78.343 29.887 108.231 0 28.901-28.902 29.849-75.167 2.852-105.214z" fill="#ffd88e"/><path id="XMLID_1272_" d="m397.214 374v55.846h-89.75v72.154h67.008" fill="#fff"/><path id="XMLID_1486_" d="m424.214 502c33.689 0 61-27.311 61-61v-46.082c0-73.499-59.583-133.082-133.082-133.082h-153.836c-73.499 0-133.082 59.583-133.082 133.082l242.25 107.082z" fill="#ff7a7a"/><path id="XMLID_1681_" d="m92.981 429.844-45.096-45.096c-28.118-28.118-28.118-73.706 0-101.823 28.118-28.118 73.706-28.118 101.823 0l96.167 96.167c14.596 14.596 21.615 33.899 21.058 53.022l-20.478 48.215c-.192.196-.385.392-.58.586-19.309 19.309-46.856 25.358-71.326 18.148z" fill="#cbf4fb"/><circle id="XMLID_1137_" cx="98.797" cy="333.836" fill="#ffd0c6" r="72"/><path id="XMLID_1168_" d="m305.873 262.183v-31.681h-61.318v31.681h-31.843c0 34.519 27.983 62.502 62.502 62.502 34.519 0 62.502-27.983 62.502-62.502z" fill="#f4c6af"/><path id="XMLID_1206_" d="m343.424 125.239v41.093c0 37.671-30.539 68.21-68.21 68.21-37.671 0-68.21-30.539-68.21-68.21v-41.093h50.072c11.416 0 22.163-5.383 29-14.525 12.053 9.412 26.906 14.525 42.198 14.525z" fill="#f4c6af"/><path id="XMLID_1242_" d="m132.348 429.846h-66.013c-19.922 0-36.073 16.15-36.073 36.073 0 19.922 16.15 36.073 36.073 36.073h66.013z" fill="#ff7a7a"/><g fill="#f4c6af"><path id="XMLID_1271_" d="m279.541 429.846h27.923v72.154h-27.923c-19.925 0-36.077-16.152-36.077-36.077 0-19.925 16.152-36.077 36.077-36.077z"/><path id="XMLID_1427_" d="m160.271 502h-27.923v-72.154h27.923c19.925 0 36.077 16.152 36.077 36.077 0 19.925-16.153 36.077-36.077 36.077z"/></g></g><g id="XMLID_529_"><path id="XMLID_656_" d="m106.962 361.047c10.501 0 19.045-8.544 19.045-19.045 0-5.523-4.477-10-10-10-5.215 0-9.498 3.992-9.959 9.086-5.095.461-9.086 4.744-9.086 9.959 0 5.523 4.477 10 10 10z"/><path id="XMLID_657_" d="m275.463 201.857c6.796 0 13.591-2.586 18.765-7.76 3.905-3.905 3.905-10.237 0-14.143s-10.237-3.905-14.143 0c-2.549 2.55-6.696 2.549-9.245 0-3.905-3.905-10.237-3.905-14.143 0-3.905 3.905-3.905 10.237 0 14.143 5.176 5.174 11.971 7.76 18.766 7.76z"/><path id="XMLID_660_" d="m492.224 365.689c-1.123-5.408-6.42-8.883-11.824-7.758-5.408 1.123-8.881 6.416-7.758 11.824 1.707 8.222 2.572 16.688 2.572 25.164v46.081c0 28.122-22.878 51-51 51h-106.75v-52.154h79.75c5.523 0 10-4.477 10-10v-55.846c0-5.523-4.477-10-10-10s-10 4.477-10 10v45.846h-107.673c-1.079 0-2.147.051-3.208.124-2.245-18.005-10.442-35.004-23.387-47.95l-93.823-93.822c12.546-4.22 25.665-6.362 39.172-6.362h5.123c4.89 35.247 35.213 62.478 71.795 62.478s66.906-27.231 71.795-62.478h5.123c28.354 0 56.027 9.873 77.921 27.801 1.859 1.522 4.101 2.264 6.33 2.264 2.895 0 5.766-1.251 7.743-3.665 3.499-4.273 2.872-10.574-1.401-14.072-5.167-4.231-10.615-8.069-16.286-11.511 9.733-14.149 15.063-30.921 15.19-48.342.142-19.535-6.256-38.355-18.127-53.642 9.71-28.601 2.518-60.088-19.117-81.724-3.823-3.824-8.026-7.25-12.529-10.217-18.942-47.234-65.277-78.728-116.391-78.728-51.115 0-97.45 31.494-116.392 78.728-4.502 2.967-8.706 6.394-12.529 10.217-21.635 21.635-28.826 53.125-19.116 81.726-18.44 23.785-22.78 55.269-12.851 82.681-5.145-.998-10.422-1.515-15.779-1.515-21.903 0-42.495 8.53-57.983 24.018-15.487 15.488-24.017 36.08-24.017 57.983s8.53 42.495 24.017 57.983c.007.007.014.013.02.02l28.007 28.007h-2.506c-25.404 0-46.072 20.668-46.072 46.073s20.668 46.073 46.072 46.073l93.936.006c5.17 0 10.138-.869 14.782-2.446 6.588 1.646 13.266 2.457 19.898 2.457 17.684 0 35.014-5.736 49.307-16.496 8.459 10.07 21.134 16.486 35.283 16.486h144.673c39.149 0 71-31.851 71-71v-46.082c0-9.839-1.006-19.673-2.99-29.23zm-372.947 47.573c14.066-3.601 26.967-10.907 37.502-21.443 15.488-15.488 24.018-36.08 24.018-57.983 0-1.985-.094-3.954-.233-5.914l56.063 56.063c-33.015 28.76-76.932 38.518-117.35 29.277zm155.937-98.948c-25.529 0-46.861-18.309-51.546-42.478h20.887c5.523 0 10-4.477 10-10v-20.085c6.586 1.806 13.508 2.79 20.659 2.79s14.073-.984 20.659-2.79v20.085c0 5.523 4.477 10 10 10h20.887c-4.685 24.17-26.017 42.478-51.546 42.478zm-58.21-179.075h31.646c14.279 0 27.284-5.53 37.008-14.551 9.181 9.182 21.754 14.551 35.103 14.551h12.664v31.093c0 32.097-26.113 58.209-58.21 58.209s-58.209-26.113-58.209-58.209v-31.093zm-68.953 33.403c-9.631-22.517-4.671-48.249 12.635-65.555 3.496-3.497 7.414-6.549 11.645-9.072 1.964-1.171 3.467-2.981 4.259-5.126 15.203-41.205 54.938-68.889 98.874-68.889s83.669 27.684 98.874 68.888c.792 2.146 2.295 3.955 4.26 5.127 4.23 2.523 8.148 5.575 11.645 9.072 17.307 17.306 22.266 43.038 12.635 65.555-1.531 3.579-.846 7.721 1.756 10.616 21.51 23.94 22.727 58.965 3.836 84.152-17.691-7.569-36.876-11.573-56.337-11.573h-36.259v-18.72c22.5-13.749 37.551-38.541 37.551-66.784v-41.093c0-5.523-4.477-10-10-10h-22.665c-9.009 0-17.417-4.103-22.986-10.953 3.424-7.123 5.344-15.099 5.344-23.517 0-5.523-4.477-10-10-10s-10 4.477-10 10c0 19.006-15.463 34.469-34.469 34.469h-41.646c-5.523 0-10 4.477-10 10v41.093c0 28.243 15.051 53.035 37.551 66.784v18.72h-36.259c-19.478 0-38.274 3.833-55.968 11.375-18.572-25.089-17.143-60.459 3.967-83.954 2.602-2.895 3.288-7.036 1.757-10.615zm-93.094 121.354c11.71-11.71 27.28-18.16 43.84-18.16 16.559 0 32.127 6.448 43.837 18.157l.003.003.01.01c11.704 11.709 18.15 27.274 18.15 43.83 0 16.561-6.45 32.13-18.16 43.84s-27.28 18.16-43.84 18.16c-16.561 0-32.13-6.449-43.84-18.16-11.71-11.71-18.16-27.279-18.16-43.84 0-16.56 6.449-32.13 18.16-43.84zm-14.694 175.922c0-14.376 11.696-26.073 26.072-26.073h56.013v52.146h-56.013c-14.377 0-26.072-11.696-26.072-26.073zm102.085 26.082v-52.154h17.923c14.379 0 26.077 11.698 26.077 26.077s-11.699 26.077-26.077 26.077zm55.943-.085c5.078-7.404 8.056-16.356 8.056-25.992 0-13.886-6.183-26.348-15.931-34.803 21.503-5.97 41.469-16.619 58.654-31.435 4.498 7.984 7.153 16.869 7.753 26.175-13.935 7.933-23.36 22.914-23.36 40.063 0 3.963.503 7.811 1.449 11.483-10.409 8.778-23.295 13.79-36.621 14.509zm55.173-25.992c0-14.379 11.698-26.077 26.077-26.077h17.923v52.154h-17.923c-14.379 0-26.077-11.698-26.077-26.077z"/><path id="XMLID_669_" d="m465.915 335.851c2.63 0 5.21-1.07 7.07-2.93s2.93-4.44 2.93-7.07-1.07-5.21-2.93-7.07c-1.87-1.86-4.44-2.93-7.07-2.93-2.64 0-5.21 1.07-7.08 2.93-1.86 1.86-2.92 4.44-2.92 7.07s1.06 5.21 2.92 7.07c1.87 1.86 4.44 2.93 7.08 2.93z"/></g></g></svg>
